projects/vfh1/img/icons-service/Swim.svg

<svg viewBox="0 0 33 28" fill="none" xmlns="http://www.w3.org/2000/svg">
<path fill-rule="evenodd" clip-rule="evenodd" d="M1.07232 23.5406C1.24232 23.6806 2.97232 22.0006 3.16232 21.6006H3.26232C3.39766 21.5823 3.52781 21.5365 3.64476 21.466C3.76171 21.3955 3.86298 21.3018 3.94232 21.1906C4.63902 20.2822 5.60503 19.6172 6.70232 19.2906C7.34642 19.0718 8.02208 18.9603 8.70232 18.9606C11.1323 18.9606 13.2423 20.4006 15.4323 21.2306C16.6213 21.7281 17.8937 21.9961 19.1823 22.0206C19.7642 22.0204 20.3443 21.9567 20.9123 21.8306C22.2571 21.573 23.4877 20.9018 24.4323 19.9106C24.6423 19.6706 25.9723 18.1806 26.1323 17.9106C26.2749 17.6922 26.3265 17.4266 26.276 17.1707C26.2256 16.9147 26.0771 16.6886 25.8623 16.5406C25.7069 16.4252 25.5156 16.3685 25.3223 16.3806C25.1617 16.3762 25.0026 16.4135 24.8606 16.4888C24.7187 16.5642 24.5987 16.6751 24.5123 16.8106L24.2723 17.1406C23.6423 17.8706 21.6223 19.6506 20.5123 19.9006C19.4699 20.0898 18.399 20.0522 17.3723 19.7906C16.2859 19.4754 15.2287 19.0673 14.2123 18.5706C13.057 18.0096 11.856 17.5479 10.6223 17.1906C9.99483 17.0309 9.34982 16.9503 8.70232 16.9506C7.80766 16.9444 6.91841 17.0898 6.07233 17.3806C5.34474 17.6143 4.65439 17.9511 4.02232 18.3806C3.37537 18.831 2.8105 19.3891 2.35232 20.0306C2.31771 20.0706 2.28753 20.1142 2.26232 20.1606C2.05232 20.6406 0.672325 23.2906 1.07232 23.5406ZM23.5123 9.26062C23.5143 8.58507 23.7163 7.92523 24.0929 7.36435C24.4694 6.80347 25.0036 6.36667 25.6282 6.10906C26.2527 5.85145 26.9395 5.78456 27.602 5.91684C28.2645 6.04912 28.8729 6.37464 29.3506 6.85233C29.8283 7.33003 30.1538 7.93849 30.2861 8.60097C30.4184 9.26346 30.3515 9.95027 30.0939 10.5748C29.8363 11.1993 29.3995 11.7335 28.8386 12.1101C28.2777 12.4866 27.6179 12.6886 26.9423 12.6906C26.4915 12.6919 26.0449 12.6041 25.6282 12.4322C25.2114 12.2603 24.8328 12.0077 24.514 11.6889C24.1952 11.3702 23.9426 10.9915 23.7707 10.5748C23.5988 10.158 23.511 9.71143 23.5123 9.26062ZM10.5123 8.83062L17.0023 7.54062L17.1123 7.95062L17.4323 11.5406C17.3223 11.5406 9.99232 13.5406 8.48233 13.9706C9.50003 14.5112 10.5819 14.9211 11.7023 15.1906C15.9923 16.3506 19.1623 15.6806 21.9423 15.8406L18.9423 5.89062V5.83062C18.8606 5.55468 18.6792 5.31897 18.4334 5.16928C18.1877 5.01958 17.895 4.9666 17.6123 5.02062L10.0523 6.54062C9.90335 6.56908 9.76163 6.62723 9.6356 6.71161C9.50958 6.796 9.40183 6.90489 9.31878 7.03179C9.23573 7.1587 9.17908 7.30103 9.1522 7.4503C9.12532 7.59957 9.12876 7.75272 9.16232 7.90062C9.23174 8.19297 9.41006 8.44782 9.66092 8.6132C9.91178 8.77858 10.2163 8.84204 10.5123 8.79062V8.83062Z" fill="#42474D"/>
</svg>

<svg viewBox="0 0 33 28" fill="none" xmlns="http://www.w3.org/2000/svg"><path fill-rule="evenodd" clip-rule="evenodd" d="M1.072 23.54c.17.14 1.9-1.54 2.09-1.94h.1a1 1 0 00.68-.41 5.43 5.43 0 012.76-1.9 6.21 6.21 0 012-.33c2.43 0 4.54 1.44 6.73 2.27 1.19.498 2.462.766 3.75.79.582 0 1.162-.063 1.73-.19a6.57 6.57 0 003.52-1.92c.21-.24 1.54-1.73 1.7-2a1 1 0 00-.27-1.37.82.82 0 00-.54-.16.931.931 0 00-.81.43l-.24.33c-.63.73-2.65 2.51-3.76 2.76a7.38 7.38 0 01-3.14-.11 19.697 19.697 0 01-3.16-1.22 22.632 22.632 0 00-3.59-1.38 7.77 7.77 0 00-1.92-.24 7.922 7.922 0 00-2.63.43 8.001 8.001 0 00-2.05 1 6.89 6.89 0 00-1.67 1.65.735.735 0 00-.09.13c-.21.48-1.59 3.13-1.19 3.38zm22.44-14.28a3.42 3.42 0 116.84.02 3.42 3.42 0 01-6.84-.02zm-13-.43l6.49-1.29.11.41.32 3.59c-.11 0-7.44 2-8.95 2.43 1.018.541 2.1.951 3.22 1.22 4.29 1.16 7.46.49 10.24.65l-3-9.95v-.06a1.16 1.16 0 00-1.33-.81l-7.56 1.52a1.13 1.13 0 00-.89 1.36 1.18 1.18 0 001.35.89v.04z" fill="#42474D"/></svg>
